Font-Source/Egyptian2/svg-my/13461.svg

<?xml version="1.0" encoding="UTF-8" standalone="no"?>
<svg
   width="1000"
   height="1000"
   version="1.1"
   id="svg1"
   sodipodi:docname="13461.svg"
   inkscape:version="1.4.2 (f4327f4, 2025-05-13)"
   xmlns:inkscape="http://www.inkscape.org/namespaces/inkscape"
   xmlns:sodipodi="http://sodipodi.sourceforge.net/DTD/sodipodi-0.dtd"
   xmlns="http://www.w3.org/2000/svg"
   xmlns:svg="http://www.w3.org/2000/svg">
  <defs
     id="defs1" />
  <sodipodi:namedview
     id="namedview1"
     pagecolor="#ffffff"
     bordercolor="#666666"
     borderopacity="1.0"
     inkscape:showpageshadow="2"
     inkscape:pageopacity="0.0"
     inkscape:pagecheckerboard="0"
     inkscape:deskcolor="#d1d1d1"
     inkscape:zoom="2.1354625"
     inkscape:cx="568.72926"
     inkscape:cy="222.20011"
     inkscape:window-width="1680"
     inkscape:window-height="998"
     inkscape:window-x="-8"
     inkscape:window-y="-8"
     inkscape:window-maximized="1"
     inkscape:current-layer="svg1"
     showguides="true">
    <sodipodi:guide
       position="1000,1000"
       orientation="0,-1"
       id="guide1"
       inkscape:locked="false" />
    <sodipodi:guide
       position="1000,0"
       orientation="0,-1"
       id="guide2"
       inkscape:locked="false" />
    <sodipodi:guide
       position="566.36523,716.50391"
       orientation="0,-1"
       id="guide13"
       inkscape:locked="false" />
  </sodipodi:namedview>
  <path
     id="path4"
     style="fill:#000000;stroke:none;stroke-width:0.999999"
     d="m 610.37109,0.0546875 c -9.88526,0.20546721 -19.9877,0.9934999 -30.30664,2.3632813 -41.27609,5.4791258 -71.04687,37.4389242 -89.31054,95.8828122 -10.22775,13.149919 -21.91454,31.050249 -35.06446,53.697269 -7.30567,15.34156 -7.67261,23.92367 -1.09765,25.75 6.57496,1.82639 12.05629,4.56797 16.43945,8.2207 -11.4728,6.55623 -6.49465,12.97936 1.09375,14.24414 2.19124,-0.73056 1.46115,0.73204 -2.19141,4.38477 -3.65321,3.65273 -3.10593,6.75559 1.64258,9.3125 4.74863,2.55688 7.12305,10.41258 7.12305,23.5625 0,12.41931 6.94184,18.6289 20.82226,18.6289 16.07208,0 27.76096,-0.7323 35.06641,-2.19336 l 4.18359,32.4336 c -81.34623,1.28658 -138.51222,26.02161 -171.49804,74.20312 -23.996,18.37192 -56.23929,53.6162 -96.73242,105.73242 -19.87167,-22.12127 -60.92844,-56.80287 -123.16797,-104.04492 -14.24767,-33.36938 -26.24588,-60.92749 -35.99414,-82.67383 -10.12333,-22.12127 -41.618245,-43.11857 -94.484379,-62.99023 -7.4987316,0.74987 -12.7466935,5.99969 -15.7460935,15.74805 -2.6246467,9.37342 -0.7509333,14.06054 5.6230469,14.06054 16.4972006,4.1243 31.4964076,11.2478 44.9941406,21.3711 13.122667,9.74836 24.745741,27.18392 34.869141,52.30468 -23.995934,-8.62354 -40.493588,-20.05903 -49.492188,-34.30664 -8.6234,-14.62253 -17.434994,-19.49722 -26.433594,-14.62304 12.373,38.24356 45.555939,73.48784 99.546876,105.73242 l 90.54687,110.79297 c 37.49367,47.99192 71.80013,58.48959 102.91993,31.49414 30.74486,-26.62053 70.67621,-60.3643 119.79296,-101.23242 -4.12432,38.99344 1.12357,73.8626 15.7461,104.60742 12.51719,27.01092 32.41484,83.10569 59.6914,168.28515 -19.8865,-23.13362 -94.93155,-116.55665 -124.34374,-146.67382 -25.00555,-32.15311 -71.68613,-19.3995 -86.89454,16.82812 -9.3197,31.26577 -4.52089,62.56883 -2.52929,89.42578 5.0987,68.75773 97.07786,202.52383 92.94336,244.40625 -4.1346,41.88257 -28.77791,33.42868 -58.84571,43.44922 -30.0683,10.01947 -59.29646,18.19959 -87.88476,24.3086 -28.5883,6.109 -43.66438,12.34091 -44.98828,18.47851 -1.3239,6.1376 1.59645,10.64 8.68945,13.5293 7.0929,2.8891 22.95355,4.36046 47.62695,4.50976 24.6735,0.1464 48.11571,-1.97783 70.28711,-6.49023 22.1715,-4.5121 41.09991,-2.82675 56.53711,5.28125 48.2991,11.25223 98.43943,-23.23478 64.45703,-68.9668 1.5517,-62.94493 -16.0323,-111.12871 -20.1914,-150.84961 48.4695,62.70039 150.31483,200.55491 192.71093,207.65821 38.3137,6.4193 100.86443,-14.51988 111.42383,-58.51758 16.6615,-55.89336 14.43827,-111.52502 4.50977,-168.18164 -6.7869,-60.48603 -10.59846,-126.22324 -8.64453,-186.42578 28.67629,19.01707 58.79339,35.21437 92.13281,43.30468 35.24407,7.49875 51.74165,-6.56068 49.49219,-42.17968 -1.8748,-35.99395 -21.184,-97.85853 -57.92774,-185.59375 -7.12373,-71.9879 -52.17038,-104.92414 -136.90625,-106.79883 v -53.69727 c 19.72488,-8.03606 38.71875,-23.01127 56.98242,-44.92773 18.26368,-21.91646 27.3945,-52.23406 27.39454,-90.953128 0,-38.719115 -17.16608,-64.652872 -51.50196,-77.802734 C 667.7306,4.0614711 640.02679,-0.56171422 610.37109,0.0546875 Z m 6.67579,19.6210935 c 15.15889,0.91319 31.87109,3.745586 50.13476,8.494141 36.52747,9.497151 54.79102,31.414184 54.79102,65.75 0,33.605238 -12.23755,62.095098 -36.71094,85.472658 -24.47351,23.37757 -39.99731,29.58911 -46.57227,18.63086 -8.03595,-10.22772 -2.0081,-25.20488 18.08203,-44.92969 20.08978,-19.72482 25.02071,-39.08581 14.79297,-58.080078 -10.22774,-18.9943 -31.77765,-20.45296 -64.65234,-4.38086 -10.95811,-12.419351 -37.25917,-21.91919 -78.90039,-28.49414 8.03593,-20.455361 24.10866,-33.604819 48.2168,-39.449219 12.05408,-2.922179 25.65945,-3.926858 40.81836,-3.013672 z m -99.99219,61.091797 c 33.60531,2.191653 61.36674,10.959264 83.2832,26.300782 -1.46111,13.1499 3.65102,13.6986 15.33984,1.64453 23.74064,-24.482583 53.98634,-11.876528 37.25782,20.82031 -8.03605,15.7068 -18.08079,29.0398 -30.13477,39.99805 -12.05418,10.95821 -14.79371,21.91675 -8.21875,32.875 6.57496,10.95822 10.95881,20.45614 13.15039,28.49219 -0.7305,58.44394 4.01694,88.02326 14.24414,88.75976 11.01989,0.79359 16.43602,-0.91941 53.17969,2.08008 36.74393,2.99949 39.36778,39.18159 7.87305,108.54492 -6.86535,18.19352 -12.18154,40.58199 -16.04883,65.90625 l -2.50977,-1.23047 -29.80664,-13.49609 c -8.99846,-23.99596 -19.12302,-46.67937 -30.37109,-68.05078 -11.24807,-20.99647 -43.86649,-40.12009 -97.85742,-57.36719 -7.12394,1.49976 -11.62338,7.31226 -13.49805,17.43555 -1.4996,9.74837 0.18641,14.24792 5.06055,13.49805 16.4972,2.62456 31.86965,8.4351 46.11718,17.43359 13.87274,8.99847 26.62104,26.05891 38.24415,51.17969 -24.74582,-6.74886 -41.80623,-17.24654 -51.17969,-31.49414 -9.7484,-13.87268 -18.74561,-18.37222 -26.99414,-13.49805 14.24753,37.11876 49.11669,70.67498 104.60742,100.66992 17.46766,12.20639 34.78678,25.44067 52.4082,38.36133 -4.60519,65.86603 -1.89005,142.88149 6.94141,215.74805 11.4175,42.65334 10.48853,91.88916 -4.50977,148.05273 0,0 -19.24881,40.25625 -71.16601,34.97656 -51.0036,-5.1868 -205.69549,-244.70506 -211.45899,-250.72851 -25.0379,-26.16715 -54.41694,-56.76342 -72.93164,-104.60742 -9.825,-20.52577 -0.52392,-40.07769 24.20508,-31.01563 25.5907,9.37781 58.14421,77.54901 144.69141,161.08398 17.0166,11.95448 52.07182,15.14684 44.54492,-17.15039 C 501.94405,596.58978 476.85803,528.30934 466.25781,501.14648 454.25995,470.7766 450.69813,426.53319 455.57227,368.41797 c 7.49873,-34.86914 28.86921,-51.92762 64.11328,-51.17774 35.24406,0.74988 48.43272,-10.2002 46.67968,-33.74414 -2.3868,-32.05545 -13.51459,-46.75426 -40.54492,-43.83203 -27.03033,2.9222 -38.35396,-5.84347 -33.9707,-26.29883 16.07221,-9.49716 21.73483,-16.25735 16.98633,-20.27539 -4.74853,-4.01804 -13.33459,-6.39054 -25.75391,-7.12109 0,-7.30547 -6.20959,-13.51699 -18.62891,-18.63086 12.41934,-27.76087 24.47338,-47.11987 36.16211,-58.07812 11.68882,-5.84438 23.92626,-5.84438 36.71094,0 12.78467,5.8444 25.38732,9.86301 37.80664,12.05468 v -7.67187 c -8.03606,-0.73055 -18.44773,-4.56563 -31.23242,-11.50586 C 531.11583,95.196502 518.14992,93.91754 505,98.300781 c 4.38326,-7.30546 8.40214,-13.149903 12.05469,-17.533203 z M 640.2832,101.96094 c -2.29134,-0.13166 -5.01166,0.26721 -8.16797,1.27148 -16.7757,5.33774 -34.34185,32.31946 -28.49023,41.0957 -13.32962,5.92448 -16.32715,19.62906 -4.38477,24.10743 12.60324,4.72622 40.23122,-23.86818 47.1211,-41.09375 5.71434,-14.28684 3.85052,-24.81037 -6.07813,-25.38086 z m -121.11132,9.14062 c -4.60875,0.14268 -8.96683,1.35572 -13.07618,3.63867 l -10.95898,9.86133 v 8.76758 h 5.47851 c 15.3416,7.30547 32.50963,7.30547 51.50391,0 l 19.72461,3.28711 v -9.86133 L 553.2168,125.69727 C 540.66051,115.65222 529.311,110.78766 519.17188,111.10156 Z m 116.30078,2.58008 c 3.28743,0.09 4.72536,2.08635 4.31445,5.99024 -0.73059,6.94021 -3.8373,13.51497 -9.31641,19.7246 -5.47912,6.20967 -10.59329,10.59154 -15.34179,13.14844 -4.74841,2.55693 -4.74841,0.54761 0,-6.02734 4.7485,-6.5752 4.7485,-8.9475 0,-7.1211 -4.74841,1.82636 -5.66079,-0.18295 -2.73829,-6.02734 2.9222,-5.84439 6.94083,-11.32362 12.05469,-16.4375 4.79428,-2.23731 8.47042,-3.31991 11.02735,-3.25 z m -119.51563,4.3457 c -2.92251,3.65276 -2.92251,7.67139 0,12.05469 -4.38328,-1.46107 -8.03508,-2.92367 -10.95703,-4.38476 1.4611,-2.92221 5.11255,-5.47828 10.95703,-7.66993 z m 14.24609,2.19141 15.3418,8.76758 c -5.84446,1.46109 -11.68885,2.18945 -17.5332,2.18945 5.1144,-2.92221 5.84399,-6.57372 2.1914,-10.95703 z m 72.32422,32.87305 c 5.11387,3.65272 6.02745,6.7595 2.74024,9.3164 -3.28731,2.55716 -5.66175,2.37536 -7.12305,-0.54687 -1.4612,-2.92222 -3.6e-4,-5.84537 4.38281,-8.76758 z m -104.69726,11.7539 c -1.29007,-0.0347 -2.54882,2.27245 -2.14453,4.68555 0.62704,3.76189 -4.10123,7.67821 -9.86328,1.09375 -7.02914,-8.03382 -10.41005,-3.97649 -10.41016,1.09766 2.92207,-1.4607 6.02735,-0.1819 9.31445,3.83593 7.24115,8.85011 16.0081,0.62173 15.33985,-6.02734 -0.3389,-3.38796 -1.29502,-4.66026 -2.23633,-4.68555 z m -18.29297,26.26758 c 2.4724,0.0724 5.245,0.92546 17.24414,2.52539 5.47922,0.73051 7.85168,1.09766 7.12109,1.09766 l -26.29687,1.09375 c -4.80458,-1.202 -4.25627,-4.89805 1.93164,-4.7168 z m 23.27148,6.91016 c -2.34915,2.34871 -11.97477,6.84701 -18.6289,7.66992 -6.70857,0.8296 -6.92804,-1.83978 -4.38477,-4.38281 z m 231.7168,235.07226 c 13.87273,43.86762 30.36861,79.11197 49.49023,105.73242 -4.6764,-3.95706 -26.60786,-13.26522 -65.79882,-27.92187 3.39816,-29.10689 8.69516,-55.5793 16.30859,-77.81055 z"
     sodipodi:nodetypes="ssccscccssscccccccccccccccccccccsscssscccccsccccccccssssssssccsccssccsscscssccccccccccccccccsscsccccssscscccsccsccsscssssccccccccsssssssccsccccccccccsccscccccsssccscscccccc" />
</svg>

<?xml version="1.0" encoding="UTF-8" standalone="no"?>
<svg
   width="1000"
   height="1000"
   version="1.1"
   id="svg1"
   sodipodi:docname="13461.svg"
   inkscape:version="1.4.2 (f4327f4, 2025-05-13)"
   xmlns:inkscape="http://www.inkscape.org/namespaces/inkscape"
   xmlns:sodipodi="http://sodipodi.sourceforge.net/DTD/sodipodi-0.dtd"
   xmlns="http://www.w3.org/2000/svg"
   xmlns:svg="http://www.w3.org/2000/svg">
  <defs
     id="defs1" />
  <sodipodi:namedview
     id="namedview1"
     pagecolor="#ffffff"
     bordercolor="#666666"
     borderopacity="1.0"
     inkscape:showpageshadow="2"
     inkscape:pageopacity="0.0"
     inkscape:pagecheckerboard="0"
     inkscape:deskcolor="#d1d1d1"
     inkscape:zoom="0.3775"
     inkscape:cx="1055.6291"
     inkscape:cy="674.17219"
     inkscape:window-width="1680"
     inkscape:window-height="998"
     inkscape:window-x="-8"
     inkscape:window-y="-8"
     inkscape:window-maximized="1"
     inkscape:current-layer="svg1"
     showguides="true">
    <sodipodi:guide
       position="1000,1000"
       orientation="0,-1"
       id="guide1"
       inkscape:locked="false" />
    <sodipodi:guide
       position="1000,0"
       orientation="0,-1"
       id="guide2"
       inkscape:locked="false" />
    <sodipodi:guide
       position="566.36523,716.50391"
       orientation="0,-1"
       id="guide13"
       inkscape:locked="false" />
  </sodipodi:namedview>
  <path
     id="path4"
     style="fill:#000000;stroke:none;stroke-width:0.999999"
     d="M 610.37109 0.0546875 C 600.48583 0.26015471 590.38339 1.0481874 580.06445 2.4179688 C 538.78836 7.8970946 509.01758 39.856893 490.75391 98.300781 C 480.52616 111.4507 468.83937 129.35103 455.68945 151.99805 C 448.38378 167.33961 448.01684 175.92172 454.5918 177.74805 C 461.16676 179.57444 466.64809 182.31602 471.03125 185.96875 C 459.55845 192.52498 464.5366 198.94811 472.125 200.21289 C 474.31624 199.48233 473.58615 200.94493 469.93359 204.59766 C 466.28038 208.25039 466.82766 211.35325 471.57617 213.91016 C 476.3248 216.46704 478.69922 224.32274 478.69922 237.47266 C 478.69922 249.89197 485.64106 256.10156 499.52148 256.10156 C 515.59356 256.10156 527.28244 255.36926 534.58789 253.9082 L 538.77148 286.3418 C 457.42525 287.62838 400.25926 312.36341 367.27344 360.54492 C 343.27744 378.91684 311.03415 414.16112 270.54102 466.27734 C 250.66935 444.15607 209.61258 409.47447 147.37305 362.23242 C 133.12538 328.86304 121.12717 301.30493 111.37891 279.55859 C 101.25558 257.43732 69.760665 236.44002 16.894531 216.56836 C 9.3957994 217.31823 4.1478375 222.56805 1.1484375 232.31641 C -1.4762092 241.68983 0.3975042 246.37695 6.7714844 246.37695 C 23.268685 250.50125 38.267892 257.62475 51.765625 267.74805 C 64.888292 277.49641 76.511366 294.93197 86.634766 320.05273 C 62.638832 311.42919 46.141178 299.9937 37.142578 285.74609 C 28.519178 271.12356 19.707584 266.24887 10.708984 271.12305 C 23.081984 309.36661 56.264923 344.61089 110.25586 376.85547 L 200.80273 487.64844 C 238.2964 535.64036 272.60286 546.13803 303.72266 519.14258 C 334.46752 492.52205 374.39887 458.77828 423.51562 417.91016 C 419.3913 456.9036 424.63919 491.77276 439.26172 522.51758 C 451.77891 549.5285 471.67656 605.62327 498.95312 690.80273 C 479.06662 667.66911 404.02157 574.24608 374.60938 544.12891 C 349.60383 511.9758 302.92325 524.72941 287.71484 560.95703 C 278.39514 592.2228 283.19395 623.52586 285.18555 650.38281 C 290.28425 719.14054 382.26341 852.90664 378.12891 894.78906 C 373.99431 936.67163 349.351 928.21774 319.2832 938.23828 C 289.2149 948.25775 259.98674 956.43787 231.39844 962.54688 C 202.81014 968.65588 187.73406 974.88779 186.41016 981.02539 C 185.08626 987.16299 188.00661 991.66539 195.09961 994.55469 C 202.19251 997.44379 218.05316 998.91515 242.72656 999.06445 C 267.40006 999.21085 290.84227 997.08662 313.01367 992.57422 C 335.18517 988.06212 354.11358 989.74747 369.55078 997.85547 C 417.84988 1009.1077 467.99021 974.62069 434.00781 928.88867 C 435.55951 865.94374 417.97551 817.75996 413.81641 778.03906 C 462.28591 840.73945 564.13124 978.59397 606.52734 985.69727 C 644.84104 992.11657 707.39177 971.17739 717.95117 927.17969 C 734.61267 871.28633 732.38944 815.65467 722.46094 758.99805 C 715.67404 698.51202 711.86248 632.77481 713.81641 572.57227 C 742.4927 591.58934 772.6098 607.78664 805.94922 615.87695 C 841.19329 623.3757 857.69087 609.31627 855.44141 573.69727 C 853.56661 537.70332 834.25741 475.83874 797.51367 388.10352 C 790.38994 316.11562 745.34329 283.17938 660.60742 281.30469 L 660.60742 227.60742 C 680.3323 219.57136 699.32617 204.59615 717.58984 182.67969 C 735.85352 160.76323 744.98434 130.44563 744.98438 91.726562 C 744.98438 53.007447 727.8183 27.07369 693.48242 13.923828 C 667.7306 4.0614711 640.02679 -0.56171422 610.37109 0.0546875 z M 617.04688 19.675781 C 632.20577 20.588971 648.91797 23.421367 667.18164 28.169922 C 703.70911 37.667073 721.97266 59.584106 721.97266 93.919922 C 721.97266 127.52516 709.73511 156.01502 685.26172 179.39258 C 660.78821 202.77015 645.26441 208.98169 638.68945 198.02344 C 630.6535 187.79572 636.68135 172.81856 656.77148 153.09375 C 676.86126 133.36893 681.79219 114.00794 671.56445 95.013672 C 661.33671 76.019372 639.7868 74.560712 606.91211 90.632812 C 595.954 78.213461 569.65294 68.713622 528.01172 62.138672 C 536.04765 41.683311 552.12038 28.533853 576.22852 22.689453 C 588.2826 19.767274 601.88797 18.762595 617.04688 19.675781 z M 517.05469 80.767578 C 550.66 82.959231 578.42143 91.726842 600.33789 107.06836 C 598.87678 120.21826 603.98891 120.76696 615.67773 108.71289 C 639.41837 84.230307 669.66407 96.836362 652.93555 129.5332 C 644.8995 145.24 634.85476 158.573 622.80078 169.53125 C 610.7466 180.48946 608.00707 191.448 614.58203 202.40625 C 621.15699 213.36447 625.54084 222.86239 627.73242 230.89844 C 627.00192 289.34238 631.74936 318.9217 641.97656 319.6582 C 652.99645 320.45179 658.41258 318.73879 695.15625 321.73828 C 731.90018 324.73777 734.52403 360.91987 703.0293 430.2832 C 696.30806 448.09481 691.07034 469.92621 687.22461 494.59766 C 676.37755 490.08387 665.52137 485.70691 654.66406 481.46289 C 645.6656 457.46693 635.54104 434.78352 624.29297 413.41211 C 613.0449 392.41564 580.42648 373.29202 526.43555 356.04492 C 519.31161 357.54468 514.81217 363.35718 512.9375 373.48047 C 511.4379 383.22884 513.12391 387.72839 517.99805 386.97852 C 534.49525 389.60308 549.8677 395.41362 564.11523 404.41211 C 577.98797 413.41058 590.73627 430.47102 602.35938 455.5918 C 577.61356 448.84294 560.55315 438.34526 551.17969 424.09766 C 541.43129 410.22498 532.43408 405.72544 524.18555 410.59961 C 538.43308 447.71837 573.30224 481.27459 628.79297 511.26953 C 646.26063 523.47592 663.57975 536.7102 681.20117 549.63086 C 676.59598 615.49689 679.31112 692.51235 688.14258 765.37891 C 699.56008 808.03225 698.63111 857.26807 683.63281 913.43164 C 683.63281 913.43164 664.384 953.68789 612.4668 948.4082 C 561.4632 943.2214 406.77131 703.70314 401.00781 697.67969 C 375.96991 671.51254 346.59087 640.91627 328.07617 593.07227 C 318.25117 572.5465 327.55225 552.99458 352.28125 562.05664 C 377.87195 571.43445 410.42546 639.60565 496.97266 723.14062 C 513.98926 735.0951 549.04448 738.28746 541.51758 705.99023 C 501.94405 596.58978 476.85803 528.30934 466.25781 501.14648 C 454.25995 470.7766 450.69813 426.53319 455.57227 368.41797 C 463.071 333.54883 484.44148 316.49035 519.68555 317.24023 C 554.92961 317.99011 568.11827 307.04003 566.36523 283.49609 C 563.97843 251.44064 552.85064 236.74183 525.82031 239.66406 C 498.78998 242.58626 487.46635 233.82059 491.84961 213.36523 C 507.92182 203.86807 513.58444 197.10788 508.83594 193.08984 C 504.08741 189.0718 495.50135 186.6993 483.08203 185.96875 C 483.08203 178.66328 476.87244 172.45176 464.45312 167.33789 C 476.87246 139.57702 488.9265 120.21802 500.61523 109.25977 C 512.30405 103.41539 524.54149 103.41539 537.32617 109.25977 C 550.11084 115.10417 562.71349 119.12278 575.13281 121.31445 L 575.13281 113.64258 C 567.09675 112.91203 556.68508 109.07695 543.90039 102.13672 C 531.11583 95.196502 518.14992 93.91754 505 98.300781 C 509.38326 90.995321 513.40214 85.150878 517.05469 80.767578 z M 640.2832 101.96094 C 637.99186 101.82928 635.27154 102.22815 632.11523 103.23242 C 615.33953 108.57016 597.77338 135.55188 603.625 144.32812 C 590.29538 150.2526 587.29785 163.95718 599.24023 168.43555 C 611.84347 173.16177 639.47145 144.56737 646.36133 127.3418 C 652.07567 113.05496 650.21185 102.53143 640.2832 101.96094 z M 519.17188 111.10156 C 514.56313 111.24424 510.20505 112.45728 506.0957 114.74023 L 495.13672 124.60156 L 495.13672 133.36914 L 500.61523 133.36914 C 515.95683 140.67461 533.12486 140.67461 552.11914 133.36914 L 571.84375 136.65625 L 571.84375 126.79492 L 553.2168 125.69727 C 540.66051 115.65222 529.311 110.78766 519.17188 111.10156 z M 635.47266 113.68164 C 638.76009 113.77164 640.19802 115.76799 639.78711 119.67188 C 639.05652 126.61209 635.94981 133.18685 630.4707 139.39648 C 624.99158 145.60615 619.87741 149.98802 615.12891 152.54492 C 610.3805 155.10185 610.3805 153.09253 615.12891 146.51758 C 619.87741 139.94238 619.87741 137.57008 615.12891 139.39648 C 610.3805 141.22284 609.46812 139.21353 612.39062 133.36914 C 615.31282 127.52475 619.33145 122.04552 624.44531 116.93164 C 629.23959 114.69433 632.91573 113.61173 635.47266 113.68164 z M 515.95703 118.02734 C 513.03452 121.6801 513.03452 125.69873 515.95703 130.08203 C 511.57375 128.62096 507.92195 127.15836 505 125.69727 C 506.4611 122.77506 510.11255 120.21899 515.95703 118.02734 z M 530.20312 120.21875 L 545.54492 128.98633 C 539.70046 130.44742 533.85607 131.17578 528.01172 131.17578 C 533.12612 128.25357 533.85571 124.60206 530.20312 120.21875 z M 602.52734 153.0918 C 607.64121 156.74452 608.55479 159.8513 605.26758 162.4082 C 601.98027 164.96536 599.60583 164.78356 598.14453 161.86133 C 596.68333 158.93911 598.14417 156.01596 602.52734 153.09375 L 602.52734 153.0918 z M 497.83008 164.8457 C 496.54001 164.811 495.28126 167.11815 495.68555 169.53125 C 496.31259 173.29314 491.58432 177.20946 485.82227 170.625 C 478.79313 162.59118 475.41222 166.64851 475.41211 171.72266 C 478.33418 170.26196 481.43946 171.54076 484.72656 175.55859 C 491.96771 184.4087 500.73466 176.18032 500.06641 169.53125 C 499.72751 166.14329 498.77139 164.87099 497.83008 164.8457 z M 479.53711 191.11328 C 480.42117 191.13918 481.42012 191.24452 482.53516 191.44727 C 486.55319 192.17785 491.30214 192.9081 496.78125 193.63867 C 502.26047 194.36918 504.63293 194.73633 503.90234 194.73633 L 477.60547 195.83008 C 472.80089 194.62808 473.3492 190.93203 479.53711 191.11328 z M 502.80859 198.02344 C 500.45944 200.37215 490.83382 204.87045 484.17969 205.69336 C 477.47112 206.52296 477.25165 203.85358 479.79492 201.31055 L 502.80859 198.02344 z M 734.52539 433.0957 C 748.39812 476.96332 764.894 512.20767 784.01562 538.82812 C 762.32621 527.97516 740.48122 517.71957 718.55859 508.03516 C 721.9663 480.05826 727.16312 454.59355 734.52539 433.0957 z " />
</svg>
